X: 3408
T: Open the Door to Three
P: Mr Richardson's Jig
C:Porteous Coll. 1820
B:RSCDS 34-8
Z:Anselm Lingnau <anselm@strathspey.org>
R:Jig (8x48) AABAA
M:6/8
L:1/8
K:G
F|:"G"G2 G- GDB,|G,B,D GAB|"Am"[c3E3] "A9"[B3E3]|"D7"ABG FED|\
   "G"G2 G- GDB,|"G"G,B,D GAB|
                              "Am"cde "D7"def|1 "G"gdc "D7"BAB:|\
                                             [2 "D7"g3 G2||\
f|"G"g2 g- gdB|gdB "D7"def|"Em"gag "G"gdB|"Am"Aag "D"fed|
  "G"g2 g- gdB|gdB "D"def|"G"gab "D7"agf|"G"gdB GBd|\
  "G"g2 g- gdB|gdB "D"def|
                          "Em"gag "G"gdB|"Am"Aa"A7"g fe"D7"d|\
  "Em"gab "D"fga|"C"efg fed|"Am"cde "D7"def|"G"gdc "D7"BAB|]
%%center Book34/3408-Open_the_Door_to_Three-AL.abc

%%newpage
%%center OTHER TRANSCRIPTIONS
%%sep 3 1 500
%%sep 1 1 500

%%sep 1 1 500
%%sep 1 1 500

